!!!OTL: Bupa baigui laishaolou
!!!ARE: Asia, China, Fujian Wuping
!! II, 587
!!!SCT: C2008
!!!YEM: Copyright 1995, estate of Helmut Schaffrath.
**kern
*ICvox
*Ivox
*M2/4
*k[f#]
*G:
{8dd
8b
8a
16a
16b
=1
8dd
16ee
16gg
4aa}
=2
{16gg
16ee
16dd
16ee
16gg
16aa
8ee
=3
8ee
8aa
8aa
8aa
=4
8aa
8ee
8aa
16ee
16dd
=5
4.ee
16dd
16b}
=6
{8dd
8a
16a
16b
8dd
=7
8ee
8ee
8aa
16gg
16ee
=8
16gg
16aa
8gg
8gg
16ee
16dd
=9
8ee
4ee
8aa}
=10
{8gg
16gg
16ee
8dd
[8dd
=11
4.dd]
16dd
16b}
=12
{8dd
8ee
8dd
8dd
=13
2aa}
=14
{16gg
16ee
16dd
16ee
8gg
8ee
=15
8aa
16gg
16aa
8gg
8gg
=16
8aa
8gg
8gg
16ee
16dd
=17
4.ee
16dd
16b}
=18
{8dd
8dd
8dd
8a
=19
8dd
8ee
8dd
16gg
16ee
=20
8aa
8aa
8gg
16ee
16dd
=21
8ee
4ee
8aa}
=22
{8gg
16gg
16ee
8dd
[8dd
=23
4dd]
4ddd}
==
!!!AGN: Shange
!!!AMT: simple duple
!!!AIN: vox
!!!EED: Helmut Schaffrath
!!!EEV: 1.0
*-
!!!ONB: Tied note syntax fixed by Craig Sapp, 2004/05/03/
